Pods/ProtonCore-UIFoundations/libraries/UIFoundations/Sources/Assets.xcassets/Images/IconSet/ic-map.imageset/ic-map.svg

<svg width="24" height="24" viewBox="0 0 24 24" fill="none" xmlns="http://www.w3.org/2000/svg">
<path fill-rule="evenodd" clip-rule="evenodd" d="M3 5.71507V20.5959L8.25 18.2626V3.27383C8.2395 3.27806 8.22892 3.28233 8.21827 3.28664C7.71788 3.48922 7.08634 3.7694 6.42306 4.0747C5.10103 4.68321 3.68468 5.37678 3 5.71507ZM9.75 3.27383C9.85339 3.31547 9.96366 3.36097 10.0801 3.40998C10.7338 3.68522 11.5431 4.05507 12.3369 4.42861C13.1291 4.8014 13.8988 5.17457 14.4709 5.4548C14.6753 5.55493 14.8544 5.64311 15 5.71507V20.738C14.5643 20.5576 14.0197 20.3058 13.4054 20.0125C13.0387 19.8374 12.6476 19.6478 12.2444 19.4523C11.4292 19.0569 10.5642 18.6375 9.75 18.2655V3.27383ZM8.99843 19.5714L3.60859 21.9669C2.61568 22.4082 1.5 21.6803 1.5 20.5959V5.71353C1.5 5.14714 1.81851 4.62575 2.33173 4.37215C3.01856 4.03277 4.45238 3.3305 5.79588 2.71211C6.46658 2.40339 7.12278 2.11187 7.65539 1.89625C7.92082 1.7888 8.16529 1.69622 8.37042 1.6293C8.54055 1.57379 8.78528 1.5 9 1.5C9.14564 1.5 9.28863 1.53215 9.38681 1.55748C9.49924 1.5865 9.6233 1.62585 9.75176 1.67053C10.0094 1.76016 10.322 1.88431 10.6621 2.02752C11.3444 2.31478 12.1756 2.69493 12.9756 3.07139C13.7772 3.4486 14.5544 3.82543 15.1307 4.1077C15.3782 4.22894 15.5889 4.33286 15.7489 4.41202L20.3292 2.12188C21.3265 1.62321 22.5 2.34845 22.5 3.46353V18.3148C22.5 18.8504 22.2153 19.3498 21.7413 19.6169C21.131 19.9609 19.8733 20.6624 18.6867 21.2793C18.0945 21.5871 17.5108 21.8787 17.0301 22.095C16.7906 22.2027 16.5659 22.2967 16.3726 22.3653C16.2119 22.4223 15.9726 22.5 15.75 22.5C15.537 22.5 15.3118 22.4416 15.131 22.3856C14.932 22.324 14.7058 22.2388 14.4647 22.1398C13.982 21.9416 13.3928 21.6687 12.7591 21.3662C12.3744 21.1825 11.9724 20.9875 11.563 20.789C10.7115 20.376 9.82758 19.9474 8.99843 19.5714ZM16.5 5.71353V20.6883C16.9274 20.4929 17.4487 20.2323 17.9948 19.9484C19.1556 19.345 20.3922 18.6554 21 18.3129V3.46353L16.5 5.71353Z" fill="#0C0C14"/>
</svg>

<svg xmlns="http://www.w3.org/2000/svg" width="24" height="24" viewBox="0 0 24 24">
  <g class="ic-map">
    <path fill-rule="evenodd" d="M3 5.715v14.88l5.25-2.332V3.273l-.032.014c-.5.202-1.132.482-1.795.788A148.457 148.457 0 0 0 3 5.715Zm6.75-2.441c.103.041.214.087.33.136.654.275 1.463.645 2.257 1.019A155.266 155.266 0 0 1 15 5.715v15.023a35.13 35.13 0 0 1-1.595-.726c-.366-.175-.757-.364-1.16-.56-.816-.395-1.68-.815-2.495-1.187V3.274ZM8.998 19.57l-5.39 2.396a1.5 1.5 0 0 1-2.108-1.37V5.714c0-.567.319-1.088.832-1.342.687-.34 2.12-1.042 3.464-1.66a46 46 0 0 1 1.86-.816c.265-.107.51-.2.714-.267.17-.055.415-.129.63-.129.146 0 .289.032.387.057.112.03.236.069.365.114.257.09.57.213.91.357a65.66 65.66 0 0 1 2.314 1.043 156.932 156.932 0 0 1 2.773 1.341l4.58-2.29A1.5 1.5 0 0 1 22.5 3.464v14.85c0 .536-.285 1.036-.759 1.303-.61.344-1.868 1.045-3.054 1.662-.593.308-1.176.6-1.657.816a8.76 8.76 0 0 1-.657.27c-.161.057-.4.135-.623.135a2.18 2.18 0 0 1-.619-.114 8.173 8.173 0 0 1-.666-.246 35.668 35.668 0 0 1-1.706-.774c-.385-.183-.787-.378-1.196-.577-.852-.413-1.735-.842-2.565-1.218ZM16.5 5.714v14.974a34.64 34.64 0 0 0 1.495-.74c1.16-.603 2.397-1.293 3.005-1.635V3.463l-4.5 2.25Z" class="Icon"/>
  </g>
</svg>
